X:405
T: COELN AM RHEIN DU SCHOENES STAEDTCHEN
N: E1600
O: Europa, Mitteleuropa, Deutschland, Hessen, Wetterau
R: Staende -, Handwerker -, Gesellen - Lied; Abschied, Wanderschaft
M: 3/4
L: 1/16
K: D
D2F2 | A4B4A3G | G2F2F4
E3F | G2B2B4A3G | F4z4
A2G2 | F3EE4D2F2 | A2d2d2
d2c2B2 | A2G2B2A2G2A2 | F4z4
A2G2 | F3EE4D2F2 | A2d2d2
d2c2B2 | A2G2B2A2G2A2 | F4z4

@@@ Tune index: 5089
